!!!!SEGMENT: Wil3025-Qui_la_dira_la_peine_de_mon_cueur.krn
!!!id: Wil3025
!!!AGN: Chanson
!!!SCT: Bernstein (1984)
!!!voices: 3
!!!COM: Adrien Willaert
!!!OTL: Qui la dira la peine de mon cueur
**kern	**kern	**kern
*part3	*part2	*part1
*staff3	*staff2	*staff1
*I"Bassus	*I"Tenor	*I"Superius
*I'B	*I'T	*I'S
*clefF4	*clefGv2	*clefG2
*k[]	*k[]	*k[]
*C:	*C:	*C:
*M2/1	*M2/1	*M2/1
*met(C|)	*met(C|)	*met(C|)
=1	=1	=1
2r	0r	1r
2D	.	.
1C	.	2r
.	.	2a
=2	=2	=2
1D	0r	1f
1E	.	1g
=3	=3	=3
2r	0r	1a
2D	.	.
2D	.	2r
2D	.	2a
=4	=4	=4
2C	0r	2a
1F	.	2a
.	.	2g
2E	.	2g
=5	=5	=5
2F	1r	2.f
2.A	.	.
.	.	8eL
.	.	8dJ
.	2r	2c
4G	.	.
[2F	2A	[2d
=6	=6	=6
2F]	1F	4d]
.	.	4e
4E	.	2.f
4D	.	.
2.C	1G	.
.	.	8eL
.	.	8dJ
.	.	2e
4BB	.	.
=7	=7	=7
2AA	1A	2c
4GG	.	2d
4FF	.	.
2GG	2r	2e
2FF	2A	4f
.	.	4e
=8	=8	=8
2r	2A	4d
.	.	4c
2AA	2A	1f
2BB	2G	.
2C	2G	2e
=9	=9	=9
4D	0F	1f
4E	.	.
4F	.	.
4G	.	.
2A	.	2r
[2D	.	2a
=10	=10	=10
2D]	1r	1b
4C	.	.
4BB	.	.
1AA	2r	1cc
.	2E	.
=11	=11	=11
2r	1F	1dd
2D	.	.
2C	1G	2r
2BB	.	2d
=12	=12	=12
2AA	1A	2.f
2A	.	.
.	.	4e
2F	2r	2d
2G	2E	[2e
=13	=13	=13
2A	1F	4e]
.	.	4d
2D	.	1dd
1E	1G	.
.	.	2cc#i
=14	=14	=14
0D	1.A	2dd
.	.	2d
.	.	4f
.	.	4e
.	2A	4f
.	.	4g
=15	=15	=15
2r	2.c	2a
2E	.	2g
.	4B	.
2C	2A	2e
2D	[2B	2f
=16	=16	=16
2E	4B]	2g
.	4A	.
2AA	1A	4f
.	.	4e
1BB	.	2.d
.	2G#i	.
.	.	4e
=17	=17	=17
2AA	1A	4f
.	.	4e
4D	.	4f
4E	.	4g
4F	2r	4a
4G	.	4b
[2F	2A	2cc
=18	=18	=18
4F]	2.c	4a
4E	.	4g
4F	.	4a
4G	4B	4b
4A	2A	4cc
4F	.	4dd
[2G	[2B	2ee
=19	=19	=19
4G]	4B]	4dd
4A	4A	4cc
2F	1A	4b
.	.	4a
1E	.	1b
.	2G#i	.
=20	=20	=20
2r	0A	1a
2D	.	.
2D	.	2r
2D	.	2a
=21	=21	=21
1.F	0r	2a
.	.	2a
.	.	[1cc
2F	.	.
=22	=22	=22
2E	2r	1cc]
2F	2A	.
2D	2A	2.f
2D	2A	.
.	.	4g
=23	=23	=23
2.C	1.c	2a
.	.	2g
4BB	.	.
2AA	.	2f
2GG	2B	[2g
=24	=24	=24
1D	2A	4g]
.	.	4f
.	2B	1f
1C	2G	.
.	2G	2e
=25	=25	=25
0FF	2F	1f
.	2.A	.
.	.	2r
.	4G	.
.	[2F	2a
=26	=26	=26
2r	2F]	2a
2AA	4E	2a
.	4D	.
2AA	1E	2.cc
2AA	.	.
.	.	4b
=27	=27	=27
1.C	0r	2a
.	.	4g
.	.	4f
.	.	4e
.	.	4f
2BB	.	4g
.	.	4e
=28	=28	=28
4AA	2r	2f
4BB	.	.
4C	2A	2e
4AA	.	.
2BB-X	1F	2d
2AA	.	[2f
=29	=29	=29
2GG	1G	2f]
2GG	.	2e
1FF	2.A	[1f
.	4G	.
=30	=30	=30
1r	4A	0f_
.	4B	.
.	1c	.
2r	.	.
2F	4B	.
.	4A	.
=31	=31	=31
1D	2B	1f]
.	2A	.
1E	4G	1r
.	4A	.
.	4B	.
.	4c	.
=32	=32	=32
2.F	2d	2r
.	1c	2a
4E	.	.
1D	.	1f
.	2B	.
=33	=33	=33
2.C	1c	1g
4BB	.	.
2AA	2r	1a
2D	2F	.
=34	=34	=34
2BB	2G	1r
2C	2A	.
1D	2.A	2r
.	.	2f
.	8GL	.
.	8FJ	.
=35	=35	=35
2r	4E	2.g
.	4D	.
2C	1E	.
.	.	4a
2C	.	2g
2D	2F	2f
=36	=36	=36
2.C	2G	2.e
.	4C	.
8BBL	4D	4f
8AAJ	.	.
2GG	4E	2g
.	4D	.
2FF	[2F	[2a
=37	=37	=37
2.AA	4F]	2a]
.	4E	.
.	1A	4g
4BB	.	4f
4C	.	4e
4D	.	4f
4E	2G	4g
4C	.	4a
=38	=38	=38
2D	2F	4b
.	.	4a
2GG	2G	1dd
1AA	1E	.
.	.	2cc#i
=39	=39	=39
2r	2D	1dd
2D	2F	.
2C	2E	2r
[2D	[2F	2a
=40	=40	=40
4D]	2F]	1f
4E	.	.
1F	4E	.
.	4D	.
.	1C	1g
2E	.	.
=41	=41	=41
2.F	1r	2.a
4E	.	4g
2D	2r	4a
.	.	4b
2C	2A	[2cc
=42	=42	=42
1D	1F	2cc]
.	.	2b
1C	1G	[1cc
=43	=43	=43
2r	1A	2cc]
2F	.	4b
.	.	4a
2E	2r	1b
2D	2F	.
=44	=44	=44
2.C	2G	2r
.	2A	2cc
4D	.	.
2E	2G	2b
4AA	2F	2a
4BB	.	.
=45	=45	=45
4C	2.E	2.g
4D	.	.
1E	.	.
.	4F	4a
.	2G	2b
4D	[2A	2cc
4C	.	.
=46	=46	=46
1D	2A]	4f
.	.	4g
.	4G	4a
.	4F	4b
2C	4E	4cc
.	4F	4dd
2C	4G	[2ee
.	4E	.
=47	=47	=47
2D	2F	4ee]
.	.	4dd
2GG	2G	1dd
1AA	1E	.
.	.	2cc#i
=48	=48	=48
00Dl	00Dl	00ddl
==	==	==
*-	*-	*-
!!!system-decoration: [*]
!!!RDF**kern: i = editorial accidental
!!!RDF**kern: l = terminal long
!!!ENC: Benjamin Ory
!!!END: 2023/9/27
!!!EED: Benjamin Ory
!!!EEV: 2023/09/27
!!!YEC: Copyright 2023 Benjamin Ory, All Rights Reserved
!!!ONB: Translated from MusicXML on 2023/09/27
